X:0872
M:3/4
L:1/8
Q:1/4=120
K:D
gf`ga g2|g2 G2     G2|fe`fg f2|   f2 A2A2|\
gf`ga g2|fefg      f2|ed`ef`ef|{f}e2 dcBA|a6|
ba`gf`ec|d3 e      f2|A2 B2 c2|   d6    |]

